svgs/sharp-solid/memo-pad.svg

<svg xmlns="http://www.w3.org/2000/svg" viewBox="0 0 448 512"><!--! Font Awesome Pro 6.6.0 by @fontawesome - https://fontawesome.com License - https://fontawesome.com/license (Commercial License) Copyright 2024 Fonticons, Inc. --><path d="M0 0L0 96l448 0 0-96L0 0zM0 128L0 512l448 0 0-384L0 128zm96 80l16 0 224 0 16 0 0 32-16 0-224 0-16 0 0-32zm0 96l16 0 224 0 16 0 0 32-16 0-224 0-16 0 0-32zm0 96l16 0 96 0 16 0 0 32-16 0-96 0-16 0 0-32z"/></svg>

<svg xmlns="http://www.w3.org/2000/svg" viewBox="0 0 448 512"><!--! Font Awesome Pro 6.5.2 by @fontawesome - https://fontawesome.com License - https://fontawesome.com/license (Commercial License) Copyright 2024 Fonticons, Inc. --><path d="M0 0V96H448V0H0zM0 128V512H448V128H0zm96 80h16H336h16v32H336 112 96V208zm0 96h16H336h16v32H336 112 96V304zm0 96h16 96 16v32H208 112 96V400z"/></svg>
